X: 44
T: JAMAICA
B: FIFTY OLD ENGLISH FOLK DANCE AIRS", Edgar H. Hunt ed., Schott & Co. Ltd. pub., London 1939
Z: 2004-2014 John Chambers <jc:trillian.mit.edu>
M: 2/2
L: 1/8
K: F
|:\
(F2A2) A2(Bc) | d2c2 d4 |\
(c2A2) A2(GF) | G4 F4 :|\
f2f2 e2(dc) | d2d2 (c2A2) |
f2f2 (ef)g2 | d4 c4 |\
f2f2 e2(dc) | d2d2 (c2A2) |\
(Bc)d2 c2(BA) | G4 F4 |]

%%sep 1 1 500
%%sep 1 1 500
